X: 5626
T: Butterflies In Winter
R: jig
M: 6/8
K: Bminor
|:B3F3|f=f^f B3|dB/c/d Bcd|cAc edc|
B3F3|f=f^f B2c|dB/c/d Bcd|1 cBA BcA:|2 cBA B2c||
|:dB/c/d B3|cBc AFE|FBB FBB|cBA B2c|
dcd B3|cBc ABc|dBB f=f^f|edc B2c|
dB/c/d B3|cBc AFE|FBB dBf|f=f^f B2c|
dB/c/d e=de|f=f^f|gab f=f^f|edc B3||

